X:18
T:Off To California
C:Traditional
R:Hornpipe
M:C
L:1/8
Q:1/4=70
K:G
|: G2 BG AGED | GBdg e2 (3def | gfgd edBG | ABAG E2 DE |
G2 BG AGED | GBdg e2 (3def | gfgd edBG | AGEF G2 Bd :|
|: gfeg fedf | e3 f edBd | gfgd edBG | ABAG EGDE |
GABG AGED | GBdg e2 de | g3 d edBG | AGEF G4 :|

% from F. O'Niell
